images/emptystate.svg

<svg width="332" height="221" viewBox="0 0 332 221" fill="none" xmlns="http://www.w3.org/2000/svg">
<path opacity="0.2" d="M293.371 94.0744C297.765 101.686 305.531 106.109 318.083 104.918L315.274 99.9616C322.938 95.5365 325.559 85.7261 321.127 78.0495C316.694 70.373 306.888 67.7372 299.224 72.1623C291.559 76.5874 288.939 86.3978 293.371 94.0744Z" fill="#00AF89"/>
<line x1="299.732" y1="81.5005" x2="303.956" y2="81.5005" stroke="white" stroke-width="2" stroke-linecap="round"/>
<line x1="307.655" y1="81.5005" x2="315.274" y2="81.5005" stroke="white" stroke-width="2" stroke-linecap="round"/>
<line x1="299.732" y1="86.4121" x2="308.483" y2="86.4121" stroke="white" stroke-width="2" stroke-linecap="round"/>
<line x1="312.181" y1="86.4121" x2="315.274" y2="86.4121" stroke="white" stroke-width="2" stroke-linecap="round"/>
<line x1="299.732" y1="91.3232" x2="301.693" y2="91.3232" stroke="white" stroke-width="2" stroke-linecap="round"/>
<line x1="305.391" y1="91.3232" x2="315.273" y2="91.3232" stroke="white" stroke-width="2" stroke-linecap="round"/>
<path opacity="0.2" d="M58.1117 201.334C53.7173 208.945 45.9514 213.368 33.3996 212.177L36.2088 207.221C28.5443 202.796 25.9238 192.986 30.3559 185.309C34.788 177.633 44.5942 174.997 52.2587 179.422C59.9233 183.847 62.5437 193.658 58.1117 201.334Z" fill="#00AF89"/>
<line x1="36.7324" y1="188.5" x2="40.9565" y2="188.5" stroke="white" stroke-width="2" stroke-linecap="round"/>
<line x1="44.6548" y1="188.5" x2="52.2738" y2="188.5" stroke="white" stroke-width="2" stroke-linecap="round"/>
<line x1="36.7324" y1="193.412" x2="45.4831" y2="193.412" stroke="white" stroke-width="2" stroke-linecap="round"/>
<line x1="49.1812" y1="193.412" x2="52.2736" y2="193.412" stroke="white" stroke-width="2" stroke-linecap="round"/>
<line x1="36.7324" y1="198.323" x2="38.6932" y2="198.323" stroke="white" stroke-width="2" stroke-linecap="round"/>
<line x1="42.3906" y1="198.323" x2="52.2729" y2="198.323" stroke="white" stroke-width="2" stroke-linecap="round"/>
<line x1="268.916" y1="13.8618" x2="268.916" y2="24.646" stroke="#C8CCD1" stroke-width="3" stroke-linecap="round"/>
<line x1="263.614" y1="19.0811" x2="274.398" y2="19.0811" stroke="#C8CCD1" stroke-width="3" stroke-linecap="round"/>
<line x1="304.967" y1="151.703" x2="304.967" y2="162.487" stroke="#C8CCD1" stroke-width="3" stroke-linecap="round"/>
<line x1="299.665" y1="156.923" x2="310.449" y2="156.923" stroke="#C8CCD1" stroke-width="3" stroke-linecap="round"/>
<line x1="6.80176" y1="120.954" x2="6.80176" y2="131.738" stroke="#C8CCD1" stroke-width="3" stroke-linecap="round"/>
<line x1="1.5" y1="126.173" x2="12.2841" y2="126.173" stroke="#C8CCD1" stroke-width="3" stroke-linecap="round"/>
<circle cx="160" cy="110" r="110" fill="#F8F9FA"/>
<mask id="mask0" mask-type="alpha" maskUnits="userSpaceOnUse" x="50" y="0" width="220" height="220">
<circle cx="160" cy="110" r="110" fill="#F8F9FA"/>
</mask>
<g mask="url(#mask0)">
<path opacity="0.4" fill-rule="evenodd" clip-rule="evenodd" d="M200.166 124.51C198.978 123.807 197.445 124.201 196.742 125.389C196.039 126.578 196.433 128.111 197.622 128.814C207.135 134.438 211.228 141.567 212.119 149.296C213.031 157.197 210.631 166.044 206.445 174.964C199.491 189.785 188.062 203.937 180.698 213.054L180.698 213.055C179.181 214.933 177.837 216.598 176.739 218.01C175.962 219.012 176.057 220.437 176.961 221.326C177.865 222.215 179.291 222.287 180.28 221.493L219.787 189.757C228.627 190.04 242.245 185.936 242.909 167.08C236.076 165.977 222.313 168.272 217.847 184.903L194.332 203.791C200.206 195.944 206.488 186.645 210.972 177.088C215.328 167.803 218.152 157.958 217.086 148.723C216.001 139.317 210.916 130.865 200.166 124.51Z" fill="#00AF89"/>
<path d="M200.519 81.6558C194.321 89.9424 187.792 110.75 211.267 127.689C218.192 118.325 225.739 96.0087 200.519 81.6558Z" fill="#7EA2EC"/>
<path d="M165.542 122.076C171.606 130.462 189.523 142.893 212.686 125.531C205.811 116.131 186.757 102.278 165.542 122.076Z" fill="#7EA2EC"/>
<path d="M192.803 164.721C202.855 162.264 221.122 150.351 213.768 122.354C202.469 125.18 182.458 137.61 192.803 164.721Z" fill="#7EA2EC"/>
<path d="M243.294 153.216C243.345 142.867 236.21 122.26 207.265 122.614C207.271 134.261 214.485 156.687 243.294 153.216Z" fill="#7EA2EC"/>
<path d="M249.617 102.173C239.808 98.8746 218.002 99.1761 209.248 126.768C220.308 130.421 243.864 130.615 249.617 102.173Z" fill="#7EA2EC"/>
<g filter="url(#filter0_d)">
<path d="M223.937 132.013C219.944 138.928 212.888 142.947 201.484 141.865L204.036 137.362C197.072 133.341 194.691 124.427 198.718 117.452C202.745 110.478 211.655 108.083 218.619 112.103C225.583 116.124 227.964 125.038 223.937 132.013Z" fill="white"/>
</g>
<line x1="203.732" y1="120.5" x2="207.956" y2="120.5" stroke="#2A4B8D" stroke-width="2" stroke-linecap="round"/>
<line x1="211.655" y1="120.5" x2="219.274" y2="120.5" stroke="#2A4B8D" stroke-width="2" stroke-linecap="round"/>
<line x1="203.732" y1="125.412" x2="212.483" y2="125.412" stroke="#2A4B8D" stroke-width="2" stroke-linecap="round"/>
<line x1="216.181" y1="125.412" x2="219.274" y2="125.412" stroke="#2A4B8D" stroke-width="2" stroke-linecap="round"/>
<line x1="203.732" y1="130.323" x2="205.693" y2="130.323" stroke="#2A4B8D" stroke-width="2" stroke-linecap="round"/>
<line x1="209.391" y1="130.323" x2="219.273" y2="130.323" stroke="#2A4B8D" stroke-width="2" stroke-linecap="round"/>
<path opacity="0.4" fill-rule="evenodd" clip-rule="evenodd" d="M143.687 231.614C142.819 232.687 141.245 232.854 140.171 231.985C120.31 215.921 110.307 197.818 105.589 177.971C97.6019 178.38 84 174.617 84 156.13C89.0621 155.482 98.1735 157.043 103.361 165.891C102.229 157.572 101.816 148.977 101.816 140.125C101.816 138.744 102.935 137.625 104.316 137.625C105.697 137.625 106.816 138.744 106.816 140.125C106.816 151.443 107.501 162.207 109.502 172.427C113.106 163.128 121.551 161.538 126 162.1C126 175.031 117.279 178.64 110.989 178.974C115.71 197.112 125.223 213.464 143.316 228.098C144.389 228.966 144.555 230.54 143.687 231.614Z" fill="#00AF89"/>
<circle cx="102.773" cy="99.5193" r="27.4031" fill="#FFCC33"/>
<circle cx="113.883" cy="118.776" r="27.4031" fill="#FFCC33"/>
<circle cx="90.1829" cy="118.776" r="27.4031" fill="#FFCC33"/>
<path d="M86.8501 121.738C90.9235 125.071 97.3167 126.922 102.774 126.922C117.908 126.922 130.177 114.654 130.177 99.5193C130.177 84.385 117.908 72.1162 102.774 72.1162C89.1524 72.1162 77.8523 82.0545 75.729 95.0756" stroke="#F8F9FA" stroke-width="2" stroke-linecap="round"/>
<path d="M130.547 97.0197C137.076 102.028 141.286 109.91 141.286 118.776C141.286 133.91 129.017 146.179 113.883 146.179C98.7483 146.179 86.4795 133.91 86.4795 118.776C86.4795 107.886 92.8316 98.4796 102.033 94.0601" stroke="#F8F9FA" stroke-width="2" stroke-linecap="round"/>
<path d="M101.663 143.666C98.1708 145.279 94.2819 146.179 90.1829 146.179C75.0486 146.179 62.7798 133.91 62.7798 118.776C62.7798 103.641 75.0486 91.3726 90.1829 91.3726C105.317 91.3726 117.586 103.641 117.586 118.776C117.586 119.904 117.518 121.016 117.385 122.108" stroke="#F8F9FA" stroke-width="2" stroke-linecap="round"/>
<path d="M86.4795 122.108C86.4795 103.445 96.8482 95.8162 102.033 94.335C115.956 100.852 118.203 116.06 117.586 122.849C114.623 124.701 107.587 126.922 101.292 126.922C96.2557 126.922 89.3186 123.713 86.4795 122.108Z" fill="white"/>
<g filter="url(#filter1_d)">
<path d="M84.947 114.878C86.7388 124.358 93.3485 131.726 107.212 134.965L106.101 128.811C115.977 126.945 122.518 117.68 120.711 108.119C118.903 98.5569 109.433 92.3188 99.5567 94.1854C89.6808 96.052 83.1398 105.316 84.947 114.878Z" fill="white"/>
</g>
<line x1="93.9043" y1="105.805" x2="99.025" y2="105.805" stroke="#2A4B8D" stroke-width="2" stroke-linecap="round"/>
<line x1="102.968" y1="105.805" x2="111.973" y2="105.805" stroke="#2A4B8D" stroke-width="2" stroke-linecap="round"/>
<line x1="93.9043" y1="111.424" x2="104.204" y2="111.424" stroke="#2A4B8D" stroke-width="2" stroke-linecap="round"/>
<line x1="108.146" y1="111.424" x2="111.973" y2="111.424" stroke="#2A4B8D" stroke-width="2" stroke-linecap="round"/>
<line x1="93.9043" y1="117.043" x2="96.4357" y2="117.043" stroke="#2A4B8D" stroke-width="2" stroke-linecap="round"/>
<line x1="100.377" y1="117.043" x2="111.972" y2="117.043" stroke="#2A4B8D" stroke-width="2" stroke-linecap="round"/>
<path opacity="0.4" fill-rule="evenodd" clip-rule="evenodd" d="M159.305 107.717C160.685 107.717 161.805 108.837 161.805 110.217V165.141C166.689 156.242 175.621 154.679 180.539 155.31C180.539 171.605 169.488 175.914 161.805 176.17V227.541C161.805 228.922 160.685 230.041 159.305 230.041C157.924 230.041 156.805 228.922 156.805 227.541V161.568C149.144 161.783 136.722 157.98 136.722 140.704C142.137 140.009 152.418 141.974 156.805 153.464V110.217C156.805 108.837 157.924 107.717 159.305 107.717Z" fill="#00AF89"/>
<circle cx="159.544" cy="47.5129" r="20.2443" fill="#3366CC"/>
<circle cx="132.319" cy="68.4553" r="20.2443" fill="#3366CC"/>
<circle cx="186.768" cy="68.4553" r="20.2443" fill="#3366CC"/>
<circle cx="142.091" cy="99.8688" r="20.2443" fill="#3366CC"/>
<circle cx="176.298" cy="99.8688" r="20.2443" fill="#3366CC"/>
<g filter="url(#filter2_d)">
<path d="M182.354 86.979C175.301 99.1953 162.837 106.294 142.69 104.383L147.199 96.4283C134.897 89.3257 130.691 73.5796 137.805 61.2583C144.919 48.9371 160.658 44.7065 172.96 51.809C185.262 58.9116 189.468 74.6577 182.354 86.979Z" fill="white"/>
</g>
<line x1="146.85" y1="64.7256" x2="154.892" y2="64.7256" stroke="#2A4B8D" stroke-width="2" stroke-linecap="round"/>
<line x1="159.63" y1="64.7256" x2="173.149" y2="64.7256" stroke="#2A4B8D" stroke-width="2" stroke-linecap="round"/>
<line x1="146.85" y1="71.1157" x2="162.194" y2="71.1157" stroke="#2A4B8D" stroke-width="2" stroke-linecap="round"/>
<line x1="166.933" y1="71.1157" x2="173.149" y2="71.1157" stroke="#2A4B8D" stroke-width="2" stroke-linecap="round"/>
<line x1="146.85" y1="77.5059" x2="151.24" y2="77.5059" stroke="#2A4B8D" stroke-width="2" stroke-linecap="round"/>
<line x1="155.979" y1="77.5059" x2="173.149" y2="77.5059" stroke="#2A4B8D" stroke-width="2" stroke-linecap="round"/>
<line x1="146.85" y1="82.9829" x2="157.18" y2="82.9829" stroke="#2A4B8D" stroke-width="2" stroke-linecap="round"/>
<line x1="161.456" y1="82.9829" x2="164.933" y2="82.9829" stroke="#2A4B8D" stroke-width="2" stroke-linecap="round"/>
<line x1="168.759" y1="82.9829" x2="173.149" y2="82.9829" stroke="#2A4B8D" stroke-width="2" stroke-linecap="round"/>
</g>
<g opacity="0.6">
<path d="M51.613 24.2081C46.9629 27.7955 37.9996 37.435 45.9559 39.7651C53.9122 42.0953 56.2092 30.9259 51.613 24.2081Z" fill="#C8CCD1"/>
<path d="M49.7538 22.3489C46.1664 26.999 36.5269 35.9623 34.1968 28.006C31.8666 20.0497 43.036 17.7527 49.7538 22.3489Z" fill="#C8CCD1"/>
<ellipse cx="44.5417" cy="29.1585" rx="10" ry="6.5" transform="rotate(135 44.5417 29.1585)" fill="#FFCC33"/>
<path fill-rule="evenodd" clip-rule="evenodd" d="M47.6318 35.0769C48.149 34.6803 48.6536 34.239 49.1379 33.7547C49.6222 33.2703 50.0635 32.7657 50.4602 32.2485L41.4517 23.24C40.9344 23.6367 40.4298 24.078 39.9455 24.5623C39.4612 25.0466 39.0199 25.5512 38.6233 26.0684L47.6318 35.0769ZM36.6218 29.7238C35.7428 32.2798 35.9669 34.7258 37.4707 36.2295C38.9744 37.7332 41.4204 37.9574 43.9764 37.0784L36.6218 29.7238ZM51.6128 22.0874C53.1165 23.5911 53.3406 26.0371 52.4617 28.5931L45.1071 21.2385C47.6631 20.3596 50.1091 20.5837 51.6128 22.0874Z" fill="black"/>
</g>
<g opacity="0.6">
<path d="M273.209 192.349C276.796 196.999 286.436 205.962 288.766 198.006C291.096 190.05 279.926 187.753 273.209 192.349Z" fill="#C8CCD1"/>
<path d="M271.349 194.208C275.999 197.795 284.963 207.435 277.007 209.765C269.05 212.095 266.753 200.926 271.349 194.208Z" fill="#C8CCD1"/>
<ellipse cx="278.159" cy="199.42" rx="10" ry="6.5" transform="rotate(45 278.159 199.42)" fill="#FFCC33"/>
<path fill-rule="evenodd" clip-rule="evenodd" d="M284.077 196.33C283.681 195.813 283.239 195.308 282.755 194.824C282.271 194.34 281.766 193.898 281.249 193.502L272.24 202.51C272.637 203.027 273.078 203.532 273.563 204.016C274.047 204.501 274.552 204.942 275.069 205.339L284.077 196.33ZM278.724 207.34C281.28 208.219 283.726 207.995 285.23 206.491C286.734 204.988 286.958 202.542 286.079 199.986L278.724 207.34ZM271.088 192.349C272.592 190.845 275.038 190.621 277.594 191.5L270.239 198.855C269.36 196.299 269.584 193.853 271.088 192.349Z" fill="black"/>
</g>
<defs>
<filter id="filter0_d" x="185.839" y="102.823" width="48.3897" height="50.3009" filterUnits="userSpaceOnUse" color-interpolation-filters="sRGB">
<feFlood flood-opacity="0" result="BackgroundImageFix"/>
<feColorMatrix in="SourceAlpha" type="matrix" values="0 0 0 0 0 0 0 0 0 0 0 0 0 0 0 0 0 0 127 0"/>
<feOffset dy="1"/>
<feGaussianBlur stdDeviation="1.5"/>
<feColorMatrix type="matrix" values="0 0 0 0 0 0 0 0 0 0 0 0 0 0 0 0 0 0 0.4 0"/>
<feBlend mode="normal" in2="BackgroundImageFix" result="effect1_dropShadow"/>
<feBlend mode="normal" in="SourceGraphic" in2="effect1_dropShadow" result="shape"/>
</filter>
<filter id="filter1_d" x="79.6748" y="90.8057" width="47.4694" height="51.53" filterUnits="userSpaceOnUse" color-interpolation-filters="sRGB">
<feFlood flood-opacity="0" result="BackgroundImageFix"/>
<feColorMatrix in="SourceAlpha" type="matrix" values="0 0 0 0 0 0 0 0 0 0 0 0 0 0 0 0 0 0 127 0"/>
<feOffset dy="2"/>
<feGaussianBlur stdDeviation="1"/>
<feColorMatrix type="matrix" values="0 0 0 0 0 0 0 0 0 0 0 0 0 0 0 0 0 0 0.4 0"/>
<feBlend mode="normal" in2="BackgroundImageFix" result="effect1_dropShadow"/>
<feBlend mode="normal" in="SourceGraphic" in2="effect1_dropShadow" result="shape"/>
</filter>
<filter id="filter2_d" x="118.353" y="38.9487" width="78.882" height="82.2582" filterUnits="userSpaceOnUse" color-interpolation-filters="sRGB">
<feFlood flood-opacity="0" result="BackgroundImageFix"/>
<feColorMatrix in="SourceAlpha" type="matrix" values="0 0 0 0 0 0 0 0 0 0 0 0 0 0 0 0 0 0 127 0"/>
<feOffset dy="2"/>
<feGaussianBlur stdDeviation="1"/>
<feColorMatrix type="matrix" values="0 0 0 0 0 0 0 0 0 0 0 0 0 0 0 0 0 0 0.4 0"/>
<feBlend mode="normal" in2="BackgroundImageFix" result="effect1_dropShadow"/>
<feBlend mode="normal" in="SourceGraphic" in2="effect1_dropShadow" result="shape"/>
</filter>
</defs>
</svg>

<svg width="332" height="221" viewBox="0 0 332 221" fill="none" xmlns="http://www.w3.org/2000/svg">
<path opacity=".2" d="M293.371 94.074c4.394 7.612 12.16 12.035 24.712 10.844l-2.809-4.956c7.664-4.425 10.285-14.236 5.853-21.913-4.433-7.676-14.239-10.312-21.903-5.887-7.665 4.425-10.285 14.236-5.853 21.912z" fill="#00AF89"/><path stroke="#fff" stroke-width="2" stroke-linecap="round" d="M299.732 81.501h4.224M307.655 81.501h7.619M299.732 86.412h8.751M312.181 86.412h3.093M299.732 91.323h1.961M305.391 91.323h9.882"/><path opacity=".2" d="M58.112 201.334c-4.395 7.611-12.16 12.034-24.712 10.843l2.809-4.956c-7.665-4.425-10.285-14.235-5.853-21.912 4.432-7.676 14.238-10.312 21.903-5.887 7.664 4.425 10.285 14.236 5.853 21.912z" fill="#00AF89"/><path stroke="#fff" stroke-width="2" stroke-linecap="round" d="M36.732 188.5h4.224M44.655 188.5h7.619M36.732 193.412h8.751M49.181 193.412h3.093M36.732 198.323h1.961M42.391 198.323h9.882"/><path stroke="#C8CCD1" stroke-width="3" stroke-linecap="round" d="M268.916 13.862v10.784M263.614 19.081h10.784M304.967 151.703v10.784M299.665 156.923h10.784M6.802 120.954v10.784M1.5 126.173h10.784"/><circle cx="160" cy="110" r="110" fill="#F8F9FA"/><mask id="a" mask-type="alpha" maskUnits="userSpaceOnUse" x="50" y="0" width="220" height="220"><circle cx="160" cy="110" r="110" fill="#F8F9FA"/></mask><g mask="url(#a)"><path opacity=".4" fill-rule="evenodd" clip-rule="evenodd" d="M200.166 124.51a2.5 2.5 0 1 0-2.544 4.304c9.513 5.624 13.606 12.753 14.497 20.482.912 7.901-1.488 16.748-5.674 25.668-6.954 14.821-18.383 28.973-25.747 38.09v.001a365.742 365.742 0 0 0-3.959 4.955 2.501 2.501 0 0 0 3.541 3.483l39.507-31.736c8.84.283 22.458-3.821 23.122-22.677-6.833-1.103-20.596 1.192-25.062 17.823l-23.515 18.888c5.874-7.847 12.156-17.146 16.64-26.703 4.356-9.285 7.18-19.13 6.114-28.365-1.085-9.406-6.17-17.858-16.92-24.213z" fill="#00AF89"/><path d="M200.519 81.656c-6.198 8.286-12.727 29.094 10.748 46.033 6.925-9.364 14.472-31.68-10.748-46.033z" fill="#7EA2EC"/><path d="M165.542 122.076c6.064 8.386 23.981 20.817 47.144 3.455-6.875-9.4-25.929-23.253-47.144-3.455z" fill="#7EA2EC"/><path d="M192.803 164.721c10.052-2.457 28.319-14.37 20.965-42.367-11.299 2.826-31.31 15.256-20.965 42.367z" fill="#7EA2EC"/><path d="M243.294 153.216c.051-10.349-7.084-30.956-36.029-30.602.006 11.647 7.22 34.073 36.029 30.602z" fill="#7EA2EC"/><path d="M249.617 102.173c-9.809-3.298-31.615-2.997-40.369 24.595 11.06 3.653 34.616 3.847 40.369-24.595z" fill="#7EA2EC"/><g filter="url(#b)"><path d="M223.937 132.013c-3.993 6.915-11.049 10.934-22.453 9.852l2.552-4.503c-6.964-4.021-9.345-12.935-5.318-19.91 4.027-6.974 12.937-9.369 19.901-5.349 6.964 4.021 9.345 12.935 5.318 19.91z" fill="#fff"/></g><path stroke="#2A4B8D" stroke-width="2" stroke-linecap="round" d="M203.732 120.5h4.224M211.655 120.5h7.619M203.732 125.412h8.751M216.181 125.412h3.093M203.732 130.323h1.961M209.391 130.323h9.882"/><path opacity=".4" fill-rule="evenodd" clip-rule="evenodd" d="M143.687 231.614a2.5 2.5 0 0 1-3.516.371c-19.861-16.064-29.864-34.167-34.582-54.014C97.602 178.38 84 174.617 84 156.13c5.062-.648 14.174.913 19.361 9.761-1.132-8.319-1.545-16.914-1.545-25.766a2.5 2.5 0 1 1 5 0c0 11.318.685 22.082 2.686 32.302 3.604-9.299 12.049-10.889 16.498-10.327 0 12.931-8.721 16.54-15.011 16.874 4.721 18.138 14.234 34.49 32.327 49.124a2.5 2.5 0 0 1 .371 3.516z" fill="#00AF89"/><circle cx="102.773" cy="99.519" r="27.403" fill="#FC3"/><circle cx="113.883" cy="118.776" r="27.403" fill="#FC3"/><circle cx="90.183" cy="118.776" r="27.403" fill="#FC3"/><path d="M86.85 121.738c4.074 3.333 10.467 5.184 15.924 5.184 15.134 0 27.403-12.268 27.403-27.403 0-15.134-12.269-27.403-27.403-27.403-13.622 0-24.922 9.939-27.045 22.96" stroke="#F8F9FA" stroke-width="2" stroke-linecap="round"/><path d="M130.547 97.02c6.529 5.008 10.739 12.89 10.739 21.756 0 15.134-12.269 27.403-27.403 27.403-15.135 0-27.403-12.269-27.403-27.403 0-10.89 6.352-20.296 15.553-24.716" stroke="#F8F9FA" stroke-width="2" stroke-linecap="round"/><path d="M101.663 143.666a27.307 27.307 0 0 1-11.48 2.513c-15.134 0-27.403-12.269-27.403-27.403 0-15.135 12.269-27.403 27.403-27.403 15.134 0 27.403 12.268 27.403 27.403 0 1.128-.068 2.24-.201 3.332" stroke="#F8F9FA" stroke-width="2" stroke-linecap="round"/><path d="M86.48 122.108c0-18.663 10.368-26.292 15.553-27.773 13.923 6.517 16.17 21.725 15.553 28.514-2.963 1.852-9.999 4.073-16.294 4.073-5.036 0-11.973-3.209-14.813-4.814z" fill="#fff"/><g filter="url(#c)"><path d="M84.947 114.878c1.792 9.48 8.401 16.848 22.265 20.087l-1.111-6.154c9.876-1.866 16.417-11.131 14.61-20.692-1.808-9.562-11.278-15.8-21.154-13.934-9.876 1.867-16.417 11.131-14.61 20.693z" fill="#fff"/></g><path stroke="#2A4B8D" stroke-width="2" stroke-linecap="round" d="M93.904 105.805h5.121M102.968 105.805h9.005M93.904 111.424h10.3M108.146 111.424h3.827M93.904 117.043h2.532M100.377 117.043h11.595"/><path opacity=".4" fill-rule="evenodd" clip-rule="evenodd" d="M159.305 107.717a2.5 2.5 0 0 1 2.5 2.5v54.924c4.884-8.899 13.816-10.462 18.734-9.831 0 16.295-11.051 20.604-18.734 20.86v51.371a2.5 2.5 0 0 1-5 0v-65.973c-7.661.215-20.083-3.588-20.083-20.864 5.415-.695 15.696 1.27 20.083 12.76v-43.247a2.5 2.5 0 0 1 2.5-2.5z" fill="#00AF89"/><circle cx="159.544" cy="47.513" r="20.244" fill="#36C"/><circle cx="132.319" cy="68.455" r="20.244" fill="#36C"/><circle cx="186.768" cy="68.455" r="20.244" fill="#36C"/><circle cx="142.091" cy="99.869" r="20.244" fill="#36C"/><circle cx="176.298" cy="99.869" r="20.244" fill="#36C"/><g filter="url(#d)"><path d="M182.354 86.979c-7.053 12.216-19.517 19.315-39.664 17.404l4.509-7.955c-12.302-7.102-16.508-22.848-9.394-35.17 7.114-12.32 22.853-16.552 35.155-9.449s16.508 22.849 9.394 35.17z" fill="#fff"/></g><path stroke="#2A4B8D" stroke-width="2" stroke-linecap="round" d="M146.85 64.726h8.042M159.63 64.726h13.519M146.85 71.116h15.344M166.933 71.116h6.216M146.85 77.506h4.39M155.979 77.506h17.17M146.85 82.983h10.33M161.456 82.983h3.477M168.759 82.983h4.39"/></g><g opacity=".6"><path d="M51.613 24.208C46.963 27.796 38 37.435 45.956 39.765c7.956 2.33 10.253-8.84 5.657-15.557zM49.754 22.349c-3.588 4.65-13.227 13.613-15.557 5.657-2.33-7.956 8.839-10.253 15.557-5.657z" fill="#C8CCD1"/><ellipse cx="44.542" cy="29.159" rx="10" ry="6.5" transform="rotate(135 44.542 29.159)" fill="#FC3"/><path fill-rule="evenodd" clip-rule="evenodd" d="M47.632 35.077a15.323 15.323 0 0 0 2.828-2.828l-9.008-9.009a15.3 15.3 0 0 0-2.829 2.828l9.009 9.009zm-11.01-5.353c-.88 2.556-.655 5.002.849 6.506 1.503 1.503 3.95 1.727 6.505.848l-7.354-7.354zm14.99-7.637c1.505 1.504 1.729 3.95.85 6.506l-7.355-7.355c2.556-.878 5.002-.654 6.506.85z" fill="#000"/></g><g opacity=".6"><path d="M273.209 192.349c3.587 4.65 13.227 13.613 15.557 5.657 2.33-7.956-8.84-10.253-15.557-5.657zM271.349 194.208c4.65 3.587 13.614 13.227 5.658 15.557-7.957 2.33-10.254-8.839-5.658-15.557z" fill="#C8CCD1"/><ellipse cx="278.159" cy="199.42" rx="10" ry="6.5" transform="rotate(45 278.159 199.42)" fill="#FC3"/><path fill-rule="evenodd" clip-rule="evenodd" d="M284.077 196.33a15.242 15.242 0 0 0-1.322-1.506 15.242 15.242 0 0 0-1.506-1.322l-9.009 9.008c.397.517.838 1.022 1.323 1.506.484.485.989.926 1.506 1.323l9.008-9.009zm-5.353 11.01c2.556.879 5.002.655 6.506-.849 1.504-1.503 1.728-3.949.849-6.505l-7.355 7.354zm-7.636-14.991c1.504-1.504 3.95-1.728 6.506-.849l-7.355 7.355c-.879-2.556-.655-5.002.849-6.506z" fill="#000"/></g><defs><filter id="b" x="185.839" y="102.823" width="48.39" height="50.301" filterUnits="userSpaceOnUse" color-interpolation-filters="sRGB"><feFlood flood-opacity="0" result="BackgroundImageFix"/><feColorMatrix in="SourceAlpha" values="0 0 0 0 0 0 0 0 0 0 0 0 0 0 0 0 0 0 127 0"/><feOffset dy="1"/><feGaussianBlur stdDeviation="1.5"/><feColorMatrix values="0 0 0 0 0 0 0 0 0 0 0 0 0 0 0 0 0 0 0.4 0"/><feBlend in2="BackgroundImageFix" result="effect1_dropShadow"/><feBlend in="SourceGraphic" in2="effect1_dropShadow" result="shape"/></filter><filter id="c" x="79.675" y="90.806" width="47.469" height="51.53" filterUnits="userSpaceOnUse" color-interpolation-filters="sRGB"><feFlood flood-opacity="0" result="BackgroundImageFix"/><feColorMatrix in="SourceAlpha" values="0 0 0 0 0 0 0 0 0 0 0 0 0 0 0 0 0 0 127 0"/><feOffset dy="2"/><feGaussianBlur stdDeviation="1"/><feColorMatrix values="0 0 0 0 0 0 0 0 0 0 0 0 0 0 0 0 0 0 0.4 0"/><feBlend in2="BackgroundImageFix" result="effect1_dropShadow"/><feBlend in="SourceGraphic" in2="effect1_dropShadow" result="shape"/></filter><filter id="d" x="118.353" y="38.949" width="78.882" height="82.258" filterUnits="userSpaceOnUse" color-interpolation-filters="sRGB"><feFlood flood-opacity="0" result="BackgroundImageFix"/><feColorMatrix in="SourceAlpha" values="0 0 0 0 0 0 0 0 0 0 0 0 0 0 0 0 0 0 127 0"/><feOffset dy="2"/><feGaussianBlur stdDeviation="1"/><feColorMatrix values="0 0 0 0 0 0 0 0 0 0 0 0 0 0 0 0 0 0 0.4 0"/><feBlend in2="BackgroundImageFix" result="effect1_dropShadow"/><feBlend in="SourceGraphic" in2="effect1_dropShadow" result="shape"/></filter></defs></svg>
